src/assets/img/values/illo-heart-convo.svg

<svg fill="none" height="108" viewBox="0 0 111 108" width="111" xmlns="http://www.w3.org/2000/svg"><path d="m92.559 26.12c-4.743-7.906-9.389-11.872-16.841-16.838-1.8136-.91865-3.6841-1.72028-5.6-2.4l-3.2-1.6c-9.085-4.13-17.918-5.552-24.869-4.008-2.8897.59324-5.8367.86158-8.786.8-6.5.722-12.948 3.317-23.26 13.628-8.084 8.084-10.424004 13.741-9.630004 23.271 0 8.322.605 14.431 1.900004 19.226 1.17101 4.396 3.25605 8.4955 6.119 12.031 1.653 2.477 5.705 5.677 8.011 7.212 1.432 1.432 3.794 3.794 3.961 4.642-.829.186-1.586 2.457-2.383 4.85-1.575 3.938-3.011 5.417-10.364 11.954-.64324.3078-1.20188.7675-1.62769 1.339-.42581.572-.70598 1.24-.81631 1.944 0 .635 1.25 1.231 2 1.231.14218.007.28367-.024.409-.092.05318-.031.09796-.075.13039-.127s.05152-.112.05561-.173c1.83364-1.529 4.0003-2.607 6.326-3.147l.031-.014c1.4164-.8803 2.8818-1.6792 4.389-2.393 1.5092-.715 2.9759-1.5163 4.393-2.4 3.982-1.593 4.7-1.593 13.556-1.593 12.074.8 19.2.8 22.438-.005 2.339-.78 2.341-.782 5.49 2.368 3.232 4.04 6.546 4.832 16.878 4.037 7.226 0 7.981 0 11.945 1.583 2.9878 1.814 6.2323 3.167 9.624 4.012 3.633 1.211 5.414 1.805 6.333 1.805.219.014.436-.042.621-.16.377-.272.377-.856.377-1.74 0-1.358-.573-1.629-2.475-2.526-.455-.215-.97-.458-1.593-.769-3.955-1.318-8.732-5.138-8.732-7.9 0-.762 0-2.343.76-3.118 1.757-.891 4.123-4.269 5.627-8.032.313-.548.6-1.05.871-1.514 2.48-4.291 3.07-5.31 2.342-8.936 0-3.242-1.57-7.961-4.8-14.424-.059-.8482-.422-1.6466-1.023-2.2485-.6-.6018-1.3979-.9667-2.246-1.0275l-2.331-1.553v-20.772zm-26.89 65.78c.1-1.033 1.505-2.074 4.449-4.037 6.139-3.07 12.692-8.589 15.236-12.83 4.643-6.192 6.341-9.446 8.013-13.623.914-2.286 1.821-3.5 2.853-3.821.4555-.0954.9268-.0849 1.3776.0308.4508.1156.8691.3333 1.2224.6362 2.336 1.558 5.555 10.317 5.555 15.117 0 3.567-2.61 8.781-7.97 15.929l-4.051 4.051 1.632 3.265c.4446.7423.7959 1.5366 1.046 2.365-.9047-.4498-1.7455-1.0181-2.5-1.69l-.029-.015c-2.357-.785-3.2-.8-9.187-.8h-.454c-8.057.805-13.563-.015-15.92-2.372-.963-.971-1.332-1.606-1.273-2.206zm28.505-46.733c-.436 6.745-2 13.385-4.194 17.771-2.215 5.904-6.808 12.462-11.172 15.962-5.5 4.714-13.452 9.535-15.951 10.376-1.4135.3137-2.767.854-4.008 1.6-3.2.8-15.95.8-22.344 0-2.0852-.6032-4.2526-.8732-6.422-.8h-.034c-3.76.94-9.038 2.538-12.82 4.808-1.1801.6605-2.4094 1.2288-3.677 1.7.6658-.8389 1.3989-1.6222 2.192-2.342 2.4-2.4 6.415-9.592 7.229-13.671 0-1.594 0-2.472-2.455-3.289-6.676-3.338-14.426-12.249-15.946-18.33-1.09071-6.8728-1.62577-13.8223-1.6-20.781 0-5.654 0-7.175 2.388-11.951 4.9508-7.4622 11.4953-13.7332 19.162-18.361 7.339-4.078 25.757-4.734 35.116-2.394 7.077 2.653 16.97 7.382 21.575 11.986 3.184 2.388 3.962 3.156 8.761 9.554.2164.7365.5947 1.4154 1.107 1.987.4879.6437.9256 1.3241 1.309 2.035 1.516 2.273 2.2 7.691 1.784 14.138z" fill="#7e22ce"/><path d="m60.493 29.273c-4.057-.811-4.058-.812-8.09 4.027-1.1494 1.2069-2.4518 2.2581-3.874 3.127-.922-2.454-5.635-6.363-8-7.939l-.031-.014c-3.21-.8-8.832-.022-12.069 2.408-3.284 1.642-6.459 8.1-7.256 12.889 0 6.294 1.47 8.711 11.23 18.471 4.714 4.714 9.588 9.588 10.381 11.174.9 1.8 2.082 2.892 3.117 2.892.053 0 .1 0 .157-.008.557-.061 1.3-.476 1.715-2.129 0-.759 1.6-2.36 2.353-3.115 16.774-10.386 23.251-19.268 21.647-29.695-.789-7.885-3.953-11.274-11.28-12.088zm-15.65 10.143c-.238.9.148 2.111 1.141 3.6.743 1.486 3.972 15.8 4.789 23.155-.0287.3883-.1959.7534-.4713 1.0288-.2753.2753-.6404.4425-1.0287.4712h-.041l-.032.029c-.039.039-.06.032-.074.028-.472-.156-1.691-3.269-4.557-22.373-.786-4.716-1.6-9.592-1.6-10.408-.322-1.292-.226-1.83-.028-1.9.02-.0066.0409-.01.062-.01.348 0 1.2.814 2.18 2.782.3973.7135.6635 1.4925.786 2.3-.2694.1234-.5092.303-.7034.5267s-.3383.4863-.4226.7703zm1.147 30.7c-.582.874-1.22 1.269-1.706 1.052-.607-.268-.978-1.513-.511-3.4-.3928-2.437-.927-4.8491-1.6-7.224-.969-4.4687-1.5048-9.0204-1.6-13.592-.77-4.62-1.6-10.341-1.6-12-.382-1.911-.635-3.173-.488-3.28h.012c.4149.2677.7879.5952 1.107.972l.026.019c1.334.666 2.117 4.913 3.834 14.216.278 1.504.5816 3.1397.911 4.907.787 6.289 1.6 12.793 1.6 14.387l.006.032c.786 2.362.791 3.127.009 3.911zm-19.09-31.347c-.029.003-.056.0159-.0765.0365-.0206.0206-.0335.0476-.0365.0765-.0967.0256-.1815.0839-.24.165-.632.81-.236 4.469 1.032 9.544.557 2.78.766 4.17.455 4.55-.0452.0481-.1011.0849-.1631.1074-.062.0226-.1284.0304-.1939.0226-.412 0-.6-.928-.846-2.1-.1663-.8885-.3863-1.7662-.659-2.628-.3029-1.0019-.5322-2.0247-.686-3.06-.246-1.42-.428-2.47-.909-2.595-.0915-1.6916.471-3.3536 1.571-4.642l1.521-3.78.714 2.141.024.039c.826.826 1.662 5.289 2.372 9.549.7321 3.1637 1.2665 6.3699 1.6 9.6.43 1.725.142 2.62-.2 2.706-.164.044-.369-.095-.566-.373-.3029-.4816-.5188-1.0127-.638-1.569-.1901-2.2674-.5157-4.5215-.975-6.75-.2-1.14-.414-2.368-.628-3.657-.627-3.131-2.05-7.384-2.47-7.384zm7.272 16.17c-.917-2.8477-1.455-5.8038-1.6-8.792-1.352-5.41-2.058-12.052-1.892-13 .0388.0793.0722.1612.1.245.2039 1.2238.772 2.3578 1.63 3.254l.029.029h.041c.63 0 2.245 5.8 3.1 13.511.688 6.193 1.384 11.257 1.559 12.507l-1.395-1.393-.026-.018c-1.518-.759-1.544-1.494-1.545-2.27.799-.838.797-2.471-.005-4.073zm.7-23.068c.3 0 1.532 1.725 4.7 23.913.76 6.074 1.528 10.765 1.595 11.16-.9658-1.1816-1.711-2.5274-2.2-3.973-.036-2.6907-.3037-5.3732-.8-8.018-.526-2.8073-1.011-5.3773-1.455-7.71-1.586-8.376-2.544-13.432-2.544-14.672.005-.7.005-.7.705-.7zm20.7 31.858c-.4056.4044-.9324.665-1.5.742h-.041l-.031.029c-.275.275-.474.472-.586.447-.2-.046-.427-.743-.849-2.01-3.044-8.369-3.716-21.263-2.825-21.714.0076-.0016.0154-.0016.023 0 .054 0 .135.075.224.209l.013.015c.778.778 1.589 4.83 2.376 8.761 1.1444 3.3668 1.9465 6.8403 2.394 10.368l.011.045c.4714.9718.7408 2.0291.792 3.108zm4.1-5.058c.262 0 .446-.367.89-1.255l.01-.045c0-.789 0-2.426-.817-3.259-.9877-2.2631-1.5264-4.6965-1.586-7.165-.2-.8-.4-1.663-.6-2.5-.4202-2.1473-1.0223-4.2549-1.8-6.3 0-4.01.021-4.677.7-4.677.7 0 3.082 6.2 4.7 15.924.158.633.3 1.212.43 1.739.833 3.376 1.145 4.639 1.772 4.929.1928.0535.395.0633.5921.0287.197-.0346.3838-.1128.5469-.2287l.026-.019c.836-.836.84-1.672.019-3.315l-.019-.027c-.778-.778-1.589-4.83-2.376-8.761-1.1114-3.1031-1.9152-6.3078-2.4-9.568l-.01-.044c-.3-.607-.392-1.021-.264-1.229.141-.227.565-.227.974-.227 1.493 0 2.3.681 3.1 4.727.429 1.5.85 2.916 1.256 4.285 1.084 3.649 1.94 6.531 1.94 7.688 0 .826.016.857.83 1.671.0688.0824.1194.1785.1484.282.0289.1034.0356.2118.0196.318-.069 1.251-1.651 3.8-4.968 6.458-2.3 2.305-3.971 3.971-4.73 3.971-.065 0-.321-.1-.858-1.4-1.5558-4.4007-2.773-8.9138-3.641-13.5-1.186-5.819-1.587-9.816-1.059-10.5.623.116 1.387 2.815 2.531 6.854.1666.5887.3436 1.2117.531 1.869.713 2.495 1.279 4.879 1.733 6.795.3434 1.7794.8365 3.5266 1.474 5.223.461.887.645 1.258.906 1.258zm9.541-9.453c-.551-.624-2.22-6.223-3.26-11-.636-2.913-.759-4.3-.656-4.681l2.293 2.293c1.1415 2.4971 1.6849 5.2261 1.587 7.97.4587 1.7753.4714 3.6366.037 5.418z" fill="#f87171"/></svg>

<svg width="111" height="108" viewBox="0 0 111 108" fill="none" xmlns="http://www.w3.org/2000/svg">
<path d="M92.559 26.12C87.816 18.214 83.17 14.248 75.718 9.282C73.9044 8.36335 72.0339 7.56172 70.118 6.882L66.918 5.282C57.833 1.152 49 -0.27 42.049 1.274C39.1593 1.86724 36.2123 2.13558 33.263 2.074C26.763 2.796 20.315 5.391 10.003 15.702C1.919 23.786 -0.421004 29.443 0.372996 38.973C0.372996 47.295 0.977996 53.404 2.273 58.199C3.44401 62.595 5.52905 66.6945 8.392 70.23C10.045 72.707 14.097 75.907 16.403 77.442C17.835 78.874 20.197 81.236 20.364 82.084C19.535 82.27 18.778 84.541 17.981 86.934C16.406 90.872 14.97 92.351 7.617 98.888C6.97376 99.1958 6.41512 99.6555 5.98931 100.227C5.5635 100.799 5.28333 101.467 5.173 102.171C5.173 102.806 6.423 103.402 7.173 103.402C7.31518 103.409 7.45667 103.378 7.582 103.31C7.63518 103.279 7.67996 103.235 7.71239 103.183C7.74482 103.131 7.76391 103.071 7.768 103.01C9.60164 101.481 11.7683 100.403 14.094 99.863L14.125 99.849C15.5414 98.9687 17.0068 98.1698 18.514 97.456C20.0232 96.741 21.4899 95.9397 22.907 95.056C26.889 93.463 27.607 93.463 36.463 93.463C48.537 94.263 55.663 94.263 58.901 93.458C61.24 92.678 61.242 92.676 64.391 95.826C67.623 99.866 70.937 100.658 81.269 99.863C88.495 99.863 89.25 99.863 93.214 101.446C96.2018 103.26 99.4463 104.613 102.838 105.458C106.471 106.669 108.252 107.263 109.171 107.263C109.39 107.277 109.607 107.221 109.792 107.103C110.169 106.831 110.169 106.247 110.169 105.363C110.169 104.005 109.596 103.734 107.694 102.837C107.239 102.622 106.724 102.379 106.101 102.068C102.146 100.75 97.369 96.93 97.369 94.168C97.369 93.406 97.369 91.825 98.129 91.05C99.886 90.159 102.252 86.781 103.756 83.018C104.069 82.47 104.356 81.968 104.627 81.504C107.107 77.213 107.697 76.194 106.969 72.568C106.969 69.326 105.399 64.607 102.169 58.144C102.11 57.2958 101.747 56.4974 101.146 55.8955C100.546 55.2937 99.7481 54.9288 98.9 54.868L96.569 53.315V32.543L92.559 26.12ZM65.669 91.9C65.769 90.867 67.174 89.826 70.118 87.863C76.257 84.793 82.81 79.274 85.354 75.033C89.997 68.841 91.695 65.587 93.367 61.41C94.281 59.124 95.188 57.91 96.22 57.589C96.6755 57.4936 97.1468 57.5041 97.5976 57.6198C98.0484 57.7354 98.4667 57.9531 98.82 58.256C101.156 59.814 104.375 68.573 104.375 73.373C104.375 76.94 101.765 82.154 96.405 89.302L92.354 93.353L93.986 96.618C94.4306 97.3603 94.7819 98.1546 95.032 98.983C94.1273 98.5332 93.2865 97.9649 92.532 97.293L92.503 97.278C90.146 96.493 89.303 96.478 83.316 96.478H82.862C74.805 97.283 69.299 96.463 66.942 94.106C65.979 93.135 65.61 92.5 65.669 91.9ZM94.174 45.167C93.738 51.912 92.174 58.552 89.98 62.938C87.765 68.842 83.172 75.4 78.808 78.9C73.308 83.614 65.356 88.435 62.857 89.276C61.4435 89.5897 60.09 90.13 58.849 90.876C55.649 91.676 42.899 91.676 36.505 90.876C34.4198 90.2728 32.2524 90.0028 30.083 90.076H30.049C26.289 91.016 21.011 92.614 17.229 94.884C16.0489 95.5445 14.8196 96.1128 13.552 96.584C14.2178 95.7451 14.9509 94.9618 15.744 94.242C18.144 91.842 22.159 84.65 22.973 80.571C22.973 78.977 22.973 78.099 20.518 77.282C13.842 73.944 6.092 65.033 4.572 58.952C3.48129 52.0792 2.94623 45.1297 2.972 38.171C2.972 32.517 2.972 30.996 5.36 26.22C10.3108 18.7578 16.8553 12.4868 24.522 7.859C31.861 3.781 50.279 3.125 59.638 5.465C66.715 8.118 76.608 12.847 81.213 17.451C84.397 19.839 85.175 20.607 89.974 27.005C90.1904 27.7415 90.5687 28.4204 91.081 28.992C91.5689 29.6357 92.0066 30.3161 92.39 31.027C93.906 33.3 94.59 38.718 94.174 45.165V45.167Z" fill="#7E22CE"/>
<path d="M60.493 29.273C56.436 28.462 56.435 28.461 52.403 33.3C51.2536 34.5069 49.9512 35.5581 48.529 36.427C47.607 33.973 42.894 30.064 40.529 28.488L40.498 28.474C37.288 27.674 31.666 28.452 28.429 30.882C25.145 32.524 21.97 38.982 21.173 43.771C21.173 50.065 22.643 52.482 32.403 62.242C37.117 66.956 41.991 71.83 42.784 73.416C43.684 75.216 44.866 76.308 45.901 76.308C45.954 76.308 46.001 76.308 46.058 76.3C46.615 76.239 47.358 75.824 47.773 74.171C47.773 73.412 49.373 71.811 50.126 71.056C66.9 60.67 73.377 51.788 71.773 41.361C70.984 33.476 67.82 30.087 60.493 29.273ZM44.843 39.416C44.605 40.316 44.991 41.527 45.984 43.016C46.727 44.502 49.956 58.816 50.773 66.171C50.7443 66.5593 50.5771 66.9244 50.3017 67.1998C50.0264 67.4751 49.6613 67.6423 49.273 67.671H49.232L49.2 67.7C49.161 67.739 49.14 67.732 49.126 67.728C48.654 67.572 47.435 64.459 44.569 45.355C43.783 40.639 42.969 35.763 42.969 34.947C42.647 33.655 42.743 33.117 42.941 33.047C42.961 33.0404 42.9819 33.037 43.003 33.037C43.351 33.037 44.203 33.851 45.183 35.819C45.5803 36.5325 45.8465 37.3115 45.969 38.119C45.6996 38.2424 45.4598 38.422 45.2656 38.6457C45.0714 38.8694 44.9273 39.132 44.843 39.416ZM45.99 70.116C45.408 70.99 44.77 71.385 44.284 71.168C43.677 70.9 43.306 69.655 43.773 67.768C43.3802 65.331 42.846 62.9189 42.173 60.544C41.204 56.0753 40.6682 51.5236 40.573 46.952C39.803 42.332 38.973 36.611 38.973 34.952C38.591 33.041 38.338 31.779 38.485 31.672H38.497C38.9119 31.9397 39.2849 32.2672 39.604 32.644L39.63 32.663C40.964 33.329 41.747 37.576 43.464 46.879C43.742 48.383 44.0456 50.0187 44.375 51.786C45.162 58.075 45.975 64.579 45.975 66.173L45.981 66.205C46.767 68.567 46.772 69.332 45.99 70.116ZM26.9 38.769C26.871 38.772 26.844 38.7849 26.8235 38.8055C26.8029 38.8261 26.79 38.8531 26.787 38.882C26.6903 38.9076 26.6055 38.9659 26.547 39.047C25.915 39.857 26.311 43.516 27.579 48.591C28.136 51.371 28.345 52.761 28.034 53.141C27.9888 53.1891 27.9329 53.2259 27.8709 53.2484C27.8089 53.271 27.7425 53.2788 27.677 53.271C27.265 53.271 27.077 52.343 26.831 51.171C26.6647 50.2825 26.4447 49.4048 26.172 48.543C25.8691 47.5411 25.6398 46.5183 25.486 45.483C25.24 44.063 25.058 43.013 24.577 42.888C24.4855 41.1964 25.048 39.5344 26.148 38.246L27.669 34.466L28.383 36.607L28.407 36.646C29.233 37.472 30.069 41.935 30.779 46.195C31.5111 49.3587 32.0455 52.5649 32.379 55.795C32.809 57.52 32.521 58.415 32.179 58.501C32.015 58.545 31.81 58.406 31.613 58.128C31.3101 57.6464 31.0942 57.1153 30.975 56.559C30.7849 54.2916 30.4593 52.0375 30 49.809C29.8 48.669 29.586 47.441 29.372 46.152C28.745 43.021 27.322 38.768 26.902 38.768L26.9 38.769ZM34.172 54.939C33.255 52.0913 32.717 49.1352 32.572 46.147C31.22 40.737 30.514 34.095 30.68 33.147C30.7188 33.2263 30.7522 33.3082 30.78 33.392C30.9839 34.6158 31.552 35.7498 32.41 36.646L32.439 36.675H32.48C33.11 36.675 34.725 42.475 35.58 50.186C36.268 56.379 36.964 61.443 37.139 62.693L35.744 61.3L35.718 61.282C34.2 60.523 34.174 59.788 34.173 59.012C34.972 58.174 34.97 56.541 34.168 54.939H34.172ZM34.872 31.871C35.172 31.871 36.404 33.596 39.572 55.784C40.332 61.858 41.1 66.549 41.167 66.944C40.2012 65.7624 39.456 64.4166 38.967 62.971C38.931 60.2803 38.6633 57.5978 38.167 54.953C37.641 52.1457 37.156 49.5757 36.712 47.243C35.126 38.867 34.168 33.811 34.168 32.571C34.173 31.871 34.173 31.871 34.873 31.871H34.872ZM55.572 63.729C55.1664 64.1334 54.6396 64.394 54.072 64.471H54.031L54 64.5C53.725 64.775 53.526 64.972 53.414 64.947C53.214 64.901 52.987 64.204 52.565 62.937C49.521 54.568 48.849 41.674 49.74 41.223C49.7476 41.2214 49.7554 41.2214 49.763 41.223C49.817 41.223 49.898 41.298 49.987 41.432L50 41.447C50.778 42.225 51.589 46.277 52.376 50.208C53.5204 53.5748 54.3225 57.0483 54.77 60.576L54.781 60.621C55.2524 61.5928 55.5218 62.6501 55.573 63.729H55.572ZM59.672 58.671C59.934 58.671 60.118 58.304 60.562 57.416L60.572 57.371C60.572 56.582 60.572 54.945 59.755 54.112C58.7673 51.8489 58.2286 49.4155 58.169 46.947C57.969 46.147 57.769 45.284 57.569 44.447C57.1488 42.2997 56.5467 40.1921 55.769 38.147C55.769 34.137 55.79 33.47 56.469 33.47C57.169 33.47 59.551 39.67 61.169 49.394C61.327 50.027 61.469 50.606 61.599 51.133C62.432 54.509 62.744 55.772 63.371 56.062C63.5638 56.1155 63.766 56.1253 63.9631 56.0907C64.1601 56.0561 64.3469 55.9779 64.51 55.862L64.536 55.843C65.372 55.007 65.376 54.171 64.555 52.528L64.536 52.501C63.758 51.723 62.947 47.671 62.16 43.74C61.0486 40.6369 60.2448 37.4322 59.76 34.172L59.75 34.128C59.45 33.521 59.358 33.107 59.486 32.899C59.627 32.672 60.051 32.672 60.46 32.672C61.953 32.672 62.76 33.353 63.56 37.399C63.989 38.899 64.41 40.315 64.816 41.684C65.9 45.333 66.756 48.215 66.756 49.372C66.756 50.198 66.772 50.229 67.586 51.043C67.6548 51.1254 67.7054 51.2215 67.7344 51.325C67.7633 51.4284 67.77 51.5368 67.754 51.643C67.685 52.894 66.103 55.443 62.786 58.101C60.486 60.406 58.815 62.072 58.056 62.072C57.991 62.072 57.735 61.972 57.198 60.672C55.6422 56.2713 54.425 51.7582 53.557 47.172C52.371 41.353 51.97 37.356 52.498 36.672C53.121 36.788 53.885 39.487 55.029 43.526C55.1956 44.1147 55.3726 44.7377 55.56 45.395C56.273 47.89 56.839 50.274 57.293 52.19C57.6364 53.9694 58.1295 55.7166 58.767 57.413C59.228 58.3 59.412 58.671 59.673 58.671H59.672ZM69.213 49.218C68.662 48.594 66.993 42.995 65.953 38.218C65.317 35.305 65.194 33.918 65.297 33.537L67.59 35.83C68.7315 38.3271 69.2749 41.0561 69.177 43.8C69.6357 45.5753 69.6484 47.4366 69.214 49.218H69.213Z" fill="#F87171"/>
</svg>
